packages/assets/static/images/icons/shield-check.svg

<svg width="24" height="24" viewBox="0 0 24 24" xmlns="http://www.w3.org/2000/svg">
<path d="M19.4998 2.625H4.49976C4.10193 2.625 3.7204 2.78304 3.4391 3.06434C3.15779 3.34564 2.99976 3.72718 2.99976 4.125V9.375C2.99976 14.3175 5.39226 17.3128 7.39944 18.9553C9.56132 20.7234 11.7119 21.3234 11.8057 21.3488C11.9346 21.3838 12.0705 21.3838 12.1994 21.3488C12.2932 21.3234 14.441 20.7234 16.6057 18.9553C18.6073 17.3128 20.9998 14.3175 20.9998 9.375V4.125C20.9998 3.72718 20.8417 3.34564 20.5604 3.06434C20.2791 2.78304 19.8976 2.625 19.4998 2.625ZM19.4998 9.375C19.4998 12.8503 18.2191 15.6712 15.6935 17.7581C14.5941 18.6635 13.3437 19.368 11.9998 19.8394C10.6734 19.3762 9.43846 18.6842 8.35101 17.7947C5.79538 15.7041 4.49976 12.8719 4.49976 9.375V4.125H19.4998V9.375ZM7.71913 12.1556C7.5784 12.0149 7.49934 11.824 7.49934 11.625C7.49934 11.426 7.5784 11.2351 7.71913 11.0944C7.85986 10.9536 8.05073 10.8746 8.24976 10.8746C8.44878 10.8746 8.63965 10.9536 8.78038 11.0944L10.4998 12.8147L15.2191 8.09437C15.2888 8.02469 15.3715 7.96942 15.4626 7.9317C15.5536 7.89399 15.6512 7.87458 15.7498 7.87458C15.8483 7.87458 15.9459 7.89399 16.0369 7.9317C16.128 7.96942 16.2107 8.02469 16.2804 8.09437C16.3501 8.16406 16.4053 8.24678 16.4431 8.33783C16.4808 8.42887 16.5002 8.52645 16.5002 8.625C16.5002 8.72355 16.4808 8.82113 16.4431 8.91217C16.4053 9.00322 16.3501 9.08594 16.2804 9.15563L11.0304 14.4056C10.9607 14.4754 10.878 14.5307 10.787 14.5684C10.6959 14.6062 10.5983 14.6256 10.4998 14.6256C10.4012 14.6256 10.3036 14.6062 10.2126 14.5684C10.1215 14.5307 10.0388 14.4754 9.96913 14.4056L7.71913 12.1556Z"/>
</svg>

<svg viewBox="0 0 24 24" xmlns="http://www.w3.org/2000/svg" aria-hidden="true" fill="currentColor"><path d="M19.5 2.625h-15a1.5 1.5 0 0 0-1.5 1.5v5.25c0 4.943 2.392 7.938 4.4 9.58 2.161 1.768 4.312 2.368 4.406 2.394a.75.75 0 0 0 .393 0c.094-.026 2.242-.626 4.407-2.394C18.607 17.313 21 14.318 21 9.375v-5.25a1.5 1.5 0 0 0-1.5-1.5m0 6.75c0 3.475-1.28 6.296-3.806 8.383-1.1.906-2.35 1.61-3.694 2.081a12 12 0 0 1-3.649-2.044C5.795 15.705 4.5 12.872 4.5 9.375v-5.25h15zm-11.78 2.78a.75.75 0 1 1 1.06-1.06l1.72 1.72 4.72-4.72a.75.75 0 0 1 1.06 1.06l-5.25 5.25a.75.75 0 0 1-1.06 0z"/></svg>
